; generated by Slic3r 1.0.0RC3 on 2014-03-13 at 12:10:12

; layer_height = 0.35
; perimeters = 3
; top_solid_layers = 3
; bottom_solid_layers = 3
; fill_density = 0.5
; perimeter_speed = 30
; infill_speed = 60
; travel_speed = 130
; nozzle_diameter = 0.5
; filament_diameter = 3
; extrusion_multiplier = 1
; perimeters extrusion width = 0.50mm
; infill extrusion width = 0.58mm
; solid infill extrusion width = 0.58mm
; top infill extrusion width = 0.58mm
; first layer extrusion width = 0.70mm

G21 ; set units to millimeters
M104 S200 ; set temperature
G28 ; home all axes
G1 Z5 F5000 ; lift nozzle¨
M106;
M109 S200 ; wait for temperature to be reached
G90 ; use absolute coordinates
G92 E0
M82 ; use absolute distances for extrusion
M106 S89
G1 F1800.000 E-1.00000
G92 E0
G1 Z0.350 F7800.000
G1 X31.300 Y44.460 F7800.000
G1 E1.00000 F1800.000
G1 X32.450 Y43.850 E1.04235 F540.000
G1 X33.700 Y43.470 E1.08486
G1 X35.000 Y43.340 E1.12737
G1 X165.000 Y43.340 E5.35694
G1 X166.300 Y43.470 E5.39945
G1 X167.550 Y43.850 E5.44196
G1 X168.700 Y44.460 E5.48431
G1 X169.710 Y45.290 E5.52684
G1 X170.540 Y46.300 E5.56938
G1 X171.150 Y47.450 E5.61173
G1 X171.530 Y48.700 E5.65424
G1 X171.660 Y50.000 E5.69674
G1 X171.660 Y150.000 E8.95027
G1 X171.530 Y151.300 E8.99277
G1 X171.150 Y152.550 E9.03528
G1 X170.540 Y153.700 E9.07763
G1 X169.710 Y154.710 E9.12016
G1 X168.700 Y155.540 E9.16270
G1 X167.550 Y156.150 E9.20505
G1 X166.300 Y156.530 E9.24756
G1 X165.000 Y156.660 E9.29006
G1 X35.000 Y156.660 E13.51964
G1 X33.700 Y156.530 E13.56215
G1 X32.450 Y156.150 E13.60466
G1 X31.300 Y155.540 E13.64701
G1 X30.290 Y154.710 E13.68954
G1 X29.460 Y153.700 E13.73207
G1 X28.850 Y152.550 E13.77443
G1 X28.470 Y151.300 E13.81693
G1 X28.340 Y150.000 E13.85944
G1 X28.340 Y50.000 E17.11296
G1 X28.470 Y48.700 E17.15547
G1 X28.850 Y47.450 E17.19798
G1 X29.460 Y46.300 E17.24033
G1 X30.290 Y45.290 E17.28286
G1 X31.224 Y44.523 E17.32219
G1 F1800.000 E16.32219
G92 E0
G1 X36.664 Y51.664 F7800.000
G1 E1.00000 F1800.000
G1 X163.336 Y51.664 E5.12129 F540.000
G1 X163.336 Y148.336 E8.26652
G1 X36.664 Y148.336 E12.38781
G1 X36.664 Y51.763 E15.52984
G1 X36.007 Y51.007 F7800.000
G1 X163.993 Y51.007 E19.69389 F540.000
G1 X163.993 Y148.993 E22.88188
G1 X36.007 Y148.993 E27.04592
G1 X36.007 Y51.106 E30.23071
G1 X35.350 Y50.350 F7800.000
G1 X164.650 Y50.350 E34.43751 F378.000
G1 X164.650 Y149.650 E37.66826
G1 X35.350 Y149.650 E41.87506
G1 X35.350 Y50.449 E45.10260
G1 X35.919 Y50.679 F7800.000
G1 X37.151 Y147.869 F7800.000
G1 X37.131 Y147.849 E45.10352 F1080.000
G1 X37.131 Y146.919 E45.13383
G1 X38.081 Y147.869 E45.17762
G1 X39.011 Y147.869 E45.20793
G1 X37.131 Y145.989 E45.29457
G1 X37.131 Y145.058 E45.32488
G1 X39.942 Y147.869 E45.45439
G1 X40.872 Y147.869 E45.48470
G1 X37.131 Y144.128 E45.65708
G1 X37.131 Y143.197 E45.68739
G1 X41.803 Y147.869 E45.90263
G1 X42.733 Y147.869 E45.93293
G1 X37.131 Y142.267 E46.19104
G1 X37.131 Y141.337 E46.22135
G1 X43.663 Y147.869 E46.52231
G1 X44.594 Y147.869 E46.55262
G1 X37.131 Y140.406 E46.89645
G1 X37.131 Y139.476 E46.92676
G1 X45.524 Y147.869 E47.31345
G1 X46.455 Y147.869 E47.34376
G1 X37.131 Y138.545 E47.77331
G1 X37.131 Y137.615 E47.80362
G1 X47.385 Y147.869 E48.27604
G1 X48.315 Y147.869 E48.30635
G1 X37.131 Y136.685 E48.82163
G1 X37.131 Y135.754 E48.85194
G1 X49.246 Y147.869 E49.41009
G1 X50.176 Y147.869 E49.44040
G1 X37.131 Y134.824 E50.04140
G1 X37.131 Y133.893 E50.07171
G1 X51.107 Y147.869 E50.71559
G1 X52.037 Y147.869 E50.74590
G1 X37.131 Y132.963 E51.43263
G1 X37.131 Y132.032 E51.46294
G1 X52.968 Y147.869 E52.19254
G1 X53.898 Y147.869 E52.22285
G1 X37.131 Y131.102 E52.99531
G1 X37.131 Y130.172 E53.02562
G1 X54.828 Y147.869 E53.84095
G1 X55.759 Y147.869 E53.87125
G1 X37.131 Y129.241 E54.72944
G1 X37.131 Y128.311 E54.75975
G1 X56.689 Y147.869 E55.66081
G1 X57.620 Y147.869 E55.69111
G1 X37.131 Y127.380 E56.63503
G1 X37.131 Y126.450 E56.66534
G1 X58.550 Y147.869 E57.65212
G1 X59.480 Y147.869 E57.68243
G1 X37.131 Y125.520 E58.71207
G1 X37.131 Y124.589 E58.74238
G1 X60.411 Y147.869 E59.81489
G1 X61.341 Y147.869 E59.84520
G1 X37.131 Y123.659 E60.96056
G1 X37.131 Y122.728 E60.99087
G1 X62.272 Y147.869 E62.14911
G1 X63.202 Y147.869 E62.17942
G1 X37.131 Y121.798 E63.38051
G1 X37.131 Y120.868 E63.41082
G1 X64.132 Y147.869 E64.65478
G1 X65.063 Y147.869 E64.68509
G1 X37.131 Y119.937 E65.97191
G1 X37.131 Y119.007 E66.00222
G1 X65.993 Y147.869 E67.33191
G1 X66.924 Y147.869 E67.36222
G1 X37.131 Y118.076 E68.73477
G1 X37.131 Y117.146 E68.76508
G1 X67.854 Y147.869 E70.18049
G1 X68.785 Y147.869 E70.21080
G1 X37.131 Y116.215 E71.66908
G1 X37.131 Y115.285 E71.69939
G1 X69.715 Y147.869 E73.20053
G1 X70.645 Y147.869 E73.23083
G1 X37.131 Y114.355 E74.77484
G1 X37.131 Y113.424 E74.80515
G1 X71.576 Y147.869 E76.39201
G1 X72.506 Y147.869 E76.42232
G1 X37.131 Y112.494 E78.05205
G1 X37.131 Y111.563 E78.08236
G1 X73.437 Y147.869 E79.75496
G1 X74.367 Y147.869 E79.78526
G1 X37.131 Y110.633 E81.50072
G1 X37.131 Y109.703 E81.53103
G1 X75.297 Y147.869 E83.28935
G1 X76.228 Y147.869 E83.31966
G1 X37.131 Y108.772 E85.12084
G1 X37.131 Y107.842 E85.15115
G1 X77.158 Y147.869 E86.99520
G1 X78.089 Y147.869 E87.02551
G1 X37.131 Y106.911 E88.91242
G1 X37.131 Y105.981 E88.94273
G1 X79.019 Y147.869 E90.87250
G1 X79.949 Y147.869 E90.90281
G1 X37.131 Y105.051 E92.87545
G1 X37.131 Y104.120 E92.90576
G1 X80.880 Y147.869 E94.92126
G1 X81.810 Y147.869 E94.95157
G1 X37.131 Y103.190 E97.00993
G1 X37.131 Y102.259 E97.04024
G1 X82.741 Y147.869 E99.14147
G1 X83.671 Y147.869 E99.17178
G1 X37.131 Y101.329 E101.31587
G1 X37.131 Y100.398 E101.34618
G1 X84.602 Y147.869 E103.53313
G1 X85.532 Y147.869 E103.56344
G1 X37.131 Y99.468 E105.79326
G1 X37.131 Y98.538 E105.82357
G1 X86.462 Y147.869 E108.09625
G1 X87.393 Y147.869 E108.12656
G1 X37.131 Y97.607 E110.44210
G1 X37.131 Y96.677 E110.47241
G1 X88.323 Y147.869 E112.83082
G1 X89.254 Y147.869 E112.86113
G1 X37.131 Y95.746 E115.26240
G1 X37.131 Y94.816 E115.29271
G1 X90.184 Y147.869 E117.73685
G1 X91.114 Y147.869 E117.76715
G1 X37.131 Y93.886 E120.25415
G1 X37.131 Y92.955 E120.28446
G1 X92.045 Y147.869 E122.81432
G1 X92.975 Y147.869 E122.84463
G1 X37.131 Y92.025 E125.41736
G1 X37.131 Y91.094 E125.44767
G1 X93.906 Y147.869 E128.06325
G1 X94.836 Y147.869 E128.09356
G1 X37.131 Y90.164 E130.75202
G1 X37.131 Y89.233 E130.78232
G1 X95.766 Y147.869 E133.48364
G1 X96.697 Y147.869 E133.51395
G1 X37.131 Y88.303 E136.25813
G1 X37.131 Y87.373 E136.28844
G1 X97.627 Y147.869 E139.07548
G1 X98.558 Y147.869 E139.10579
G1 X37.131 Y86.442 E141.93569
G1 X37.131 Y85.512 E141.96600
G1 X99.488 Y147.869 E144.83877
G1 X100.419 Y147.869 E144.86908
G1 X37.131 Y84.581 E147.78471
G1 X37.131 Y83.651 E147.81502
G1 X101.349 Y147.869 E150.77352
G1 X102.279 Y147.869 E150.80383
G1 X37.131 Y82.721 E153.80518
G1 X37.131 Y81.790 E153.83549
G1 X103.210 Y147.869 E156.87972
G1 X104.140 Y147.869 E156.91002
G1 X37.131 Y80.860 E159.99711
G1 X37.131 Y79.929 E160.02742
G1 X105.071 Y147.869 E163.15737
G1 X106.001 Y147.869 E163.18768
G1 X37.131 Y78.999 E166.36049
G1 X37.131 Y78.069 E166.39080
G1 X106.931 Y147.869 E169.60647
G1 X107.862 Y147.869 E169.63678
G1 X37.131 Y77.138 E172.89532
G1 X37.131 Y76.208 E172.92563
G1 X108.792 Y147.869 E176.22703
G1 X109.723 Y147.869 E176.25734
G1 X37.131 Y75.277 E179.60161
G1 X37.131 Y74.347 E179.63192
G1 X110.653 Y147.869 E183.01905
G1 X111.584 Y147.869 E183.04936
G1 X37.131 Y73.416 E186.47935
G1 X37.131 Y72.486 E186.50966
G1 X112.514 Y147.869 E189.98252
G1 X113.444 Y147.869 E190.01282
G1 X37.131 Y71.556 E193.52854
G1 X37.131 Y70.625 E193.55885
G1 X114.375 Y147.869 E197.11744
G1 X115.305 Y147.869 E197.14774
G1 X37.131 Y69.695 E200.74919
G1 X37.131 Y68.764 E200.77950
G1 X116.236 Y147.869 E204.42381
G1 X117.166 Y147.869 E204.45412
G1 X37.131 Y67.834 E208.14129
G1 X37.131 Y66.904 E208.17160
G1 X118.096 Y147.869 E211.90164
G1 X119.027 Y147.869 E211.93195
G1 X37.131 Y65.973 E215.70485
G1 X37.131 Y65.043 E215.73516
G1 X119.957 Y147.869 E219.55092
G1 X120.888 Y147.869 E219.58123
G1 X37.131 Y64.112 E223.43986
G1 X37.131 Y63.182 E223.47016
G1 X121.818 Y147.869 E227.37165
G1 X122.748 Y147.869 E227.40196
G1 X37.131 Y62.252 E231.34632
G1 X37.131 Y61.321 E231.37663
G1 X123.679 Y147.869 E235.36384
G1 X124.609 Y147.869 E235.39415
G1 X37.131 Y60.391 E239.42423
G1 X37.131 Y59.460 E239.45454
G1 X125.540 Y147.869 E243.52748
G1 X126.470 Y147.869 E243.55779
G1 X37.131 Y58.530 E247.67360
G1 X37.131 Y57.599 E247.70391
G1 X127.401 Y147.869 E251.86258
G1 X128.331 Y147.869 E251.89289
G1 X37.131 Y56.669 E256.09442
G1 X37.131 Y55.739 E256.12473
G1 X129.261 Y147.869 E260.36913
G1 X130.192 Y147.869 E260.39944
G1 X37.131 Y54.808 E264.68670
G1 X37.131 Y53.878 E264.71701
G1 X131.122 Y147.869 E269.04713
G1 X132.053 Y147.869 E269.07744
G1 X37.131 Y52.947 E273.45043
G1 X37.244 Y52.131 E273.47730
G1 X132.983 Y147.869 E277.88792
G1 X133.913 Y147.869 E277.91823
G1 X38.174 Y52.131 E282.32885
G1 X39.105 Y52.131 E282.35916
G1 X134.844 Y147.869 E286.76978
G1 X135.774 Y147.869 E286.80009
G1 X40.035 Y52.131 E291.21071
G1 X40.966 Y52.131 E291.24102
G1 X136.705 Y147.869 E295.65164
G1 X137.635 Y147.869 E295.68195
G1 X41.896 Y52.131 E300.09257
G1 X42.827 Y52.131 E300.12288
G1 X138.565 Y147.869 E304.53350
G1 X139.496 Y147.869 E304.56381
G1 X43.757 Y52.131 E308.97443
G1 X44.687 Y52.131 E309.00474
G1 X140.426 Y147.869 E313.41536
G1 X141.357 Y147.869 E313.44567
G1 X45.618 Y52.131 E317.85629
G1 X46.548 Y52.131 E317.88660
G1 X142.287 Y147.869 E322.29722
G1 X143.218 Y147.869 E322.32753
G1 X47.479 Y52.131 E326.73815
G1 X48.409 Y52.131 E326.76846
G1 X144.148 Y147.869 E331.17908
G1 X145.078 Y147.869 E331.20939
G1 X49.339 Y52.131 E335.62002
G1 X50.270 Y52.131 E335.65032
G1 X146.009 Y147.869 E340.06095
G1 X146.939 Y147.869 E340.09125
G1 X51.200 Y52.131 E344.50188
G1 X52.131 Y52.131 E344.53219
G1 X147.870 Y147.869 E348.94281
G1 X148.800 Y147.869 E348.97312
G1 X53.061 Y52.131 E353.38374
G1 X53.991 Y52.131 E353.41405
G1 X149.730 Y147.869 E357.82467
G1 X150.661 Y147.869 E357.85498
G1 X54.922 Y52.131 E362.26560
G1 X55.852 Y52.131 E362.29591
G1 X151.591 Y147.869 E366.70653
G1 X152.522 Y147.869 E366.73684
G1 X56.783 Y52.131 E371.14746
G1 X57.713 Y52.131 E371.17777
G1 X153.452 Y147.869 E375.58839
G1 X154.382 Y147.869 E375.61870
G1 X58.644 Y52.131 E380.02932
G1 X59.574 Y52.131 E380.05963
G1 X155.313 Y147.869 E384.47025
G1 X156.243 Y147.869 E384.50056
G1 X60.504 Y52.131 E388.91118
G1 X61.435 Y52.131 E388.94149
G1 X157.174 Y147.869 E393.35211
G1 X158.104 Y147.869 E393.38242
G1 X62.365 Y52.131 E397.79304
G1 X63.296 Y52.131 E397.82335
G1 X159.035 Y147.869 E402.23397
G1 X159.965 Y147.869 E402.26428
G1 X64.226 Y52.131 E406.67490
G1 X65.156 Y52.131 E406.70521
G1 X160.895 Y147.869 E411.11584
G1 X161.826 Y147.869 E411.14614
G1 X66.087 Y52.131 E415.55677
G1 X67.017 Y52.131 E415.58707
G1 X162.756 Y147.869 E419.99770
G1 X162.869 Y147.052 E420.02457
G1 X67.948 Y52.131 E424.39755
G1 X68.878 Y52.131 E424.42786
G1 X162.869 Y146.122 E428.75797
G1 X162.869 Y145.192 E428.78828
G1 X69.808 Y52.131 E433.07553
G1 X70.739 Y52.131 E433.10584
G1 X162.869 Y144.261 E437.35023
G1 X162.869 Y143.331 E437.38054
G1 X71.669 Y52.131 E441.58206
G1 X72.600 Y52.131 E441.61237
G1 X162.869 Y142.400 E445.77103
G1 X162.869 Y141.470 E445.80134
G1 X73.530 Y52.131 E449.91714
G1 X74.461 Y52.131 E449.94744
G1 X162.869 Y140.539 E454.02038
G1 X162.869 Y139.609 E454.05069
G1 X75.391 Y52.131 E458.08076
G1 X76.321 Y52.131 E458.11107
G1 X162.869 Y138.679 E462.09827
G1 X162.869 Y137.748 E462.12858
G1 X77.252 Y52.131 E466.07293
G1 X78.182 Y52.131 E466.10324
G1 X162.869 Y136.818 E470.00472
G1 X162.869 Y135.887 E470.03503
G1 X79.113 Y52.131 E473.89364
G1 X80.043 Y52.131 E473.92395
G1 X162.869 Y134.957 E477.73971
G1 X162.869 Y134.027 E477.77001
G1 X80.973 Y52.131 E481.54290
G1 X81.904 Y52.131 E481.57321
G1 X162.869 Y133.096 E485.30324
G1 X162.869 Y132.166 E485.33355
G1 X82.834 Y52.131 E489.02071
G1 X83.765 Y52.131 E489.05102
G1 X162.869 Y131.235 E492.69532
G1 X162.869 Y130.305 E492.72563
G1 X84.695 Y52.131 E496.32707
G1 X85.625 Y52.131 E496.35738
G1 X162.869 Y129.375 E499.91595
G1 X162.869 Y128.444 E499.94626
G1 X86.556 Y52.131 E503.46197
G1 X87.486 Y52.131 E503.49228
G1 X162.869 Y127.514 E506.96512
G1 X162.869 Y126.583 E506.99543
G1 X88.417 Y52.131 E510.42542
G1 X89.347 Y52.131 E510.45572
G1 X162.869 Y125.653 E513.84284
G1 X162.869 Y124.722 E513.87315
G1 X90.278 Y52.131 E517.21741
G1 X91.208 Y52.131 E517.24772
G1 X162.869 Y123.792 E520.54911
G1 X162.869 Y122.862 E520.57942
G1 X92.138 Y52.131 E523.83795
G1 X93.069 Y52.131 E523.86826
G1 X162.869 Y121.931 E527.08392
G1 X162.869 Y121.001 E527.11423
G1 X93.999 Y52.131 E530.28704
G1 X94.930 Y52.131 E530.31735
G1 X162.869 Y120.070 E533.44728
G1 X162.869 Y119.140 E533.47759
G1 X95.860 Y52.131 E536.56467
G1 X96.790 Y52.131 E536.59498
G1 X162.869 Y118.210 E539.63919
G1 X162.869 Y117.279 E539.66950
G1 X97.721 Y52.131 E542.67085
G1 X98.651 Y52.131 E542.70116
G1 X162.869 Y116.349 E545.65964
G1 X162.869 Y115.418 E545.68995
G1 X99.582 Y52.131 E548.60558
G1 X100.512 Y52.131 E548.63588
G1 X162.869 Y114.488 E551.50864
G1 X162.869 Y113.558 E551.53895
G1 X101.442 Y52.131 E554.36885
G1 X102.373 Y52.131 E554.39916
G1 X162.869 Y112.627 E557.18619
G1 X162.869 Y111.697 E557.21650
G1 X103.303 Y52.131 E559.96067
G1 X104.234 Y52.131 E559.99098
G1 X162.869 Y110.766 E562.69228
G1 X162.869 Y109.836 E562.72259
G1 X105.164 Y52.131 E565.38103
G1 X106.095 Y52.131 E565.41134
G1 X162.869 Y108.905 E568.02692
G1 X162.869 Y107.975 E568.05723
G1 X107.025 Y52.131 E570.62994
G1 X107.955 Y52.131 E570.66025
G1 X162.869 Y107.045 E573.19010
G1 X162.869 Y106.114 E573.22041
G1 X108.886 Y52.131 E575.70740
G1 X109.816 Y52.131 E575.73771
G1 X162.869 Y105.184 E578.18184
G1 X162.869 Y104.253 E578.21214
G1 X110.747 Y52.131 E580.61341
G1 X111.677 Y52.131 E580.64372
G1 X162.869 Y103.323 E583.00211
G1 X162.869 Y102.393 E583.03242
G1 X112.607 Y52.131 E585.34796
G1 X113.538 Y52.131 E585.37827
G1 X162.869 Y101.462 E587.65094
G1 X162.869 Y100.532 E587.68125
G1 X114.468 Y52.131 E589.91105
G1 X115.399 Y52.131 E589.94136
G1 X162.869 Y99.601 E592.12831
G1 X162.869 Y98.671 E592.15862
G1 X116.329 Y52.131 E594.30270
G1 X117.259 Y52.131 E594.33301
G1 X162.869 Y97.741 E596.43423
G1 X162.869 Y96.810 E596.46453
G1 X118.190 Y52.131 E598.52289
G1 X119.120 Y52.131 E598.55320
G1 X162.869 Y95.880 E600.56869
G1 X162.869 Y94.949 E600.59900
G1 X120.051 Y52.131 E602.57163
G1 X120.981 Y52.131 E602.60193
G1 X162.869 Y94.019 E604.53170
G1 X162.869 Y93.088 E604.56201
G1 X121.912 Y52.131 E606.44891
G1 X122.842 Y52.131 E606.47922
G1 X162.869 Y92.158 E608.32326
G1 X162.869 Y91.228 E608.35356
G1 X123.772 Y52.131 E610.15474
G1 X124.703 Y52.131 E610.18505
G1 X162.869 Y90.297 E611.94336
G1 X162.869 Y89.367 E611.97367
G1 X125.633 Y52.131 E613.68911
G1 X126.564 Y52.131 E613.71942
G1 X162.869 Y88.436 E615.39201
G1 X162.869 Y87.506 E615.42232
G1 X127.494 Y52.131 E617.05204
G1 X128.424 Y52.131 E617.08235
G1 X162.869 Y86.576 E618.66920
G1 X162.869 Y85.645 E618.69951
G1 X129.355 Y52.131 E620.24351
G1 X130.285 Y52.131 E620.27381
G1 X162.869 Y84.715 E621.77494
G1 X162.869 Y83.784 E621.80525
G1 X131.216 Y52.131 E623.26352
G1 X132.146 Y52.131 E623.29383
G1 X162.869 Y82.854 E624.70923
G1 X162.869 Y81.923 E624.73954
G1 X133.076 Y52.131 E626.11208
G1 X134.007 Y52.131 E626.14239
G1 X162.869 Y80.993 E627.47207
G1 X162.869 Y80.063 E627.50238
G1 X134.937 Y52.131 E628.78919
G1 X135.868 Y52.131 E628.81950
G1 X162.869 Y79.132 E630.06345
G1 X162.869 Y78.202 E630.09376
G1 X136.798 Y52.131 E631.29484
G1 X137.729 Y52.131 E631.32515
G1 X162.869 Y77.271 E632.48338
G1 X162.869 Y76.341 E632.51369
G1 X138.659 Y52.131 E633.62905
G1 X139.589 Y52.131 E633.65935
G1 X162.869 Y75.411 E634.73185
G1 X162.869 Y74.480 E634.76216
G1 X140.520 Y52.131 E635.79179
G1 X141.450 Y52.131 E635.82210
G1 X162.869 Y73.550 E636.80887
G1 X162.869 Y72.619 E636.83918
G1 X142.381 Y52.131 E637.78309
G1 X143.311 Y52.131 E637.81340
G1 X162.869 Y71.689 E638.71444
G1 X162.869 Y70.759 E638.74475
G1 X144.241 Y52.131 E639.60293
G1 X145.172 Y52.131 E639.63324
