; generated by Slic3r 0.9.10b on 2014-03-11 at 17:38:37

; layer_height = 0.4
; perimeters = 3
; top_solid_layers = 3
; bottom_solid_layers = 3
; fill_density = 0.5
; perimeter_speed = 30
; infill_speed = 60
; travel_speed = 130
; nozzle_diameter = 0.5
; filament_diameter = 3
; extrusion_multiplier = 1
; perimeters extrusion width = 0.53mm
; infill extrusion width = 0.53mm
; solid infill extrusion width = 0.53mm
; top infill extrusion width = 0.53mm
; first layer extrusion width = 0.70mm

G21 ; set units to millimeters
M107
M104 S200 ; set temperature
G28 ; home all axes
G1 Z5 F5000 ; lift nozzle¨
M106;
M109 S200 ; wait for temperature to be reached
G90 ; use absolute coordinates
G92 E0
M82 ; use absolute distances for extrusion
G1 F1800.000 E-1.00000
G92 E0
G1 Z0.350 F7800.000
G1 X31.300 Y44.460
G1 F1800.000 E1.00000
G1 X32.450 Y43.850 F540.000 E1.04235
G1 X33.700 Y43.470 E1.08486
G1 X35.000 Y43.340 E1.12737
G1 X165.000 Y43.340 E5.35694
G1 X166.300 Y43.470 E5.39945
G1 X167.550 Y43.850 E5.44196
G1 X168.700 Y44.460 E5.48431
G1 X169.710 Y45.290 E5.52684
G1 X170.540 Y46.300 E5.56938
G1 X171.150 Y47.450 E5.61173
G1 X171.530 Y48.700 E5.65424
G1 X171.660 Y50.000 E5.69674
G1 X171.660 Y150.000 E8.95027
G1 X171.530 Y151.300 E8.99277
G1 X171.150 Y152.550 E9.03528
G1 X170.540 Y153.700 E9.07763
G1 X169.710 Y154.710 E9.12016
G1 X168.700 Y155.540 E9.16270
G1 X167.550 Y156.150 E9.20505
G1 X166.300 Y156.530 E9.24756
G1 X165.000 Y156.660 E9.29006
G1 X35.000 Y156.660 E13.51964
G1 X33.700 Y156.530 E13.56215
G1 X32.450 Y156.150 E13.60466
G1 X31.300 Y155.540 E13.64701
G1 X30.290 Y154.710 E13.68954
G1 X29.460 Y153.700 E13.73207
G1 X28.850 Y152.550 E13.77443
G1 X28.470 Y151.300 E13.81693
G1 X28.340 Y150.000 E13.85944
G1 X28.340 Y50.000 E17.11296
G1 X28.470 Y48.700 E17.15547
G1 X28.850 Y47.450 E17.19798
G1 X29.460 Y46.300 E17.24033
G1 X30.290 Y45.290 E17.28286
G1 X31.224 Y44.523 E17.32219
G1 F1800.000 E16.32219
G92 E0
G1 X36.643 Y51.643 F7800.000
G1 F1800.000 E1.00000
G1 X163.357 Y51.643 F540.000 E5.12269
G1 X163.357 Y148.357 E8.26932
G1 X36.643 Y148.357 E12.39200
G1 X36.643 Y51.741 E15.53543
G1 X35.986 Y50.986 F7800.000
G1 X164.014 Y50.986 F540.000 E19.70087
G1 X164.014 Y149.014 E22.89026
G1 X35.986 Y149.014 E27.05570
G1 X35.986 Y51.084 E30.24188
G1 X35.329 Y50.329 F7800.000
G1 X164.671 Y50.329 F378.000 E34.45008
G1 X164.671 Y149.671 E37.68222
G1 X35.329 Y149.671 E41.89042
G1 X35.329 Y50.427 E45.11936
G1 X35.898 Y50.657 F7800.000
G1 X37.927 Y147.881
G1 X37.119 Y147.073 F1080.000 E45.15653
G1 X37.119 Y146.144 E45.18677
G1 X38.856 Y147.881 E45.26671
G1 X39.785 Y147.881 E45.29694
G1 X37.119 Y145.215 E45.41965
G1 X37.119 Y144.285 E45.44988
G1 X40.715 Y147.881 E45.61535
G1 X41.644 Y147.881 E45.64559
G1 X37.119 Y143.356 E45.85382
G1 X37.119 Y142.427 E45.88406
G1 X42.573 Y147.881 E46.13505
G1 X43.503 Y147.881 E46.16529
G1 X37.119 Y141.497 E46.45905
G1 X37.119 Y140.568 E46.48929
G1 X44.432 Y147.881 E46.82582
G1 X45.361 Y147.881 E46.85606
G1 X37.119 Y139.639 E47.23535
G1 X37.119 Y138.709 E47.26558
G1 X46.291 Y147.881 E47.68764
G1 X47.220 Y147.881 E47.71788
G1 X37.119 Y137.780 E48.18270
G1 X37.119 Y136.850 E48.21294
G1 X48.149 Y147.881 E48.72052
G1 X49.079 Y147.881 E48.75076
G1 X37.119 Y135.921 E49.30111
G1 X37.119 Y134.992 E49.33135
G1 X50.008 Y147.881 E49.92446
G1 X50.938 Y147.881 E49.95470
G1 X37.119 Y134.062 E50.59058
G1 X37.119 Y133.133 E50.62082
G1 X51.867 Y147.881 E51.29946
G1 X52.796 Y147.881 E51.32970
G1 X37.119 Y132.204 E52.05111
G1 X37.119 Y131.274 E52.08135
G1 X53.726 Y147.881 E52.84552
G1 X54.655 Y147.881 E52.87576
G1 X37.119 Y130.345 E53.68269
G1 X37.119 Y129.416 E53.71293
G1 X55.584 Y147.881 E54.56263
G1 X56.514 Y147.881 E54.59287
G1 X37.119 Y128.486 E55.48534
G1 X37.119 Y127.557 E55.51558
G1 X57.443 Y147.881 E56.45081
G1 X58.372 Y147.881 E56.48105
G1 X37.119 Y126.628 E57.45905
G1 X37.119 Y125.698 E57.48929
G1 X59.302 Y147.881 E58.51005
G1 X60.231 Y147.881 E58.54029
G1 X37.119 Y124.769 E59.60381
G1 X37.119 Y123.840 E59.63405
G1 X61.160 Y147.881 E60.74034
G1 X62.090 Y147.881 E60.77058
G1 X37.119 Y122.910 E61.91963
G1 X37.119 Y121.981 E61.94987
G1 X63.019 Y147.881 E63.14169
G1 X63.948 Y147.881 E63.17193
G1 X37.119 Y121.052 E64.40652
G1 X37.119 Y120.122 E64.43676
G1 X64.878 Y147.881 E65.71411
G1 X65.807 Y147.881 E65.74435
G1 X37.119 Y119.193 E67.06446
G1 X37.119 Y118.264 E67.09470
G1 X66.736 Y147.881 E68.45758
G1 X67.666 Y147.881 E68.48782
G1 X37.119 Y117.334 E69.89346
G1 X37.119 Y116.405 E69.92370
G1 X68.595 Y147.881 E71.37211
G1 X69.524 Y147.881 E71.40235
G1 X37.119 Y115.476 E72.89352
G1 X37.119 Y114.546 E72.92376
G1 X70.454 Y147.881 E74.45770
G1 X71.383 Y147.881 E74.48794
G1 X37.119 Y113.617 E76.06464
G1 X37.119 Y112.688 E76.09488
G1 X72.312 Y147.881 E77.71435
G1 X73.242 Y147.881 E77.74459
G1 X37.119 Y111.758 E79.40682
G1 X37.119 Y110.829 E79.43706
G1 X74.171 Y147.881 E81.14205
G1 X75.100 Y147.881 E81.17229
G1 X37.119 Y109.900 E82.92006
G1 X37.119 Y108.970 E82.95029
G1 X76.030 Y147.881 E84.74082
G1 X76.959 Y147.881 E84.77106
G1 X37.119 Y108.041 E86.60435
G1 X37.119 Y107.112 E86.63459
G1 X77.888 Y147.881 E88.51065
G1 X78.818 Y147.881 E88.54089
G1 X37.119 Y106.182 E90.45971
G1 X37.119 Y105.253 E90.48995
G1 X79.747 Y147.881 E92.45153
G1 X80.676 Y147.881 E92.48177
G1 X37.119 Y104.324 E94.48612
G1 X37.119 Y103.394 E94.51636
G1 X81.606 Y147.881 E96.56348
G1 X82.535 Y147.881 E96.59371
G1 X37.119 Y102.465 E98.68359
G1 X37.119 Y101.536 E98.71383
G1 X83.464 Y147.881 E100.84648
G1 X84.394 Y147.881 E100.87672
G1 X37.119 Y100.606 E103.05213
G1 X37.119 Y99.677 E103.08237
G1 X85.323 Y147.881 E105.30054
G1 X86.252 Y147.881 E105.33078
G1 X37.119 Y98.748 E107.59172
G1 X37.119 Y97.818 E107.62196
G1 X87.182 Y147.881 E109.92566
G1 X88.111 Y147.881 E109.95590
G1 X37.119 Y96.889 E112.30237
G1 X37.119 Y95.959 E112.33261
G1 X89.041 Y147.881 E114.72184
G1 X89.970 Y147.881 E114.75208
G1 X37.119 Y95.030 E117.18408
G1 X37.119 Y94.101 E117.21432
G1 X90.899 Y147.881 E119.68908
G1 X91.829 Y147.881 E119.71932
G1 X37.119 Y93.171 E122.23685
G1 X37.119 Y92.242 E122.26709
G1 X92.758 Y147.881 E124.82738
G1 X93.687 Y147.881 E124.85762
G1 X37.119 Y91.313 E127.46067
G1 X37.119 Y90.383 E127.49091
G1 X94.617 Y147.881 E130.13674
G1 X95.546 Y147.881 E130.16698
G1 X37.119 Y89.454 E132.85556
G1 X37.119 Y88.525 E132.88580
G1 X96.475 Y147.881 E135.61715
G1 X97.405 Y147.881 E135.64739
G1 X37.119 Y87.595 E138.42151
G1 X37.119 Y86.666 E138.45175
G1 X98.334 Y147.881 E141.26863
G1 X99.263 Y147.881 E141.29887
G1 X37.119 Y85.737 E144.15851
G1 X37.119 Y84.807 E144.18875
G1 X100.193 Y147.881 E147.09116
G1 X101.122 Y147.881 E147.12140
G1 X37.119 Y83.878 E150.06658
G1 X37.119 Y82.949 E150.09682
G1 X102.051 Y147.881 E153.08476
G1 X102.981 Y147.881 E153.11499
G1 X37.119 Y82.019 E156.14570
G1 X37.119 Y81.090 E156.17594
G1 X103.910 Y147.881 E159.24941
G1 X104.839 Y147.881 E159.27965
G1 X37.119 Y80.161 E162.39588
G1 X37.119 Y79.231 E162.42612
G1 X105.769 Y147.881 E165.58512
G1 X106.698 Y147.881 E165.61536
G1 X37.119 Y78.302 E168.81712
G1 X37.119 Y77.373 E168.84736
G1 X107.627 Y147.881 E172.09189
G1 X108.557 Y147.881 E172.12213
G1 X37.119 Y76.443 E175.40942
G1 X37.119 Y75.514 E175.43966
G1 X109.486 Y147.881 E178.76972
G1 X110.415 Y147.881 E178.79996
G1 X37.119 Y74.585 E182.17278
G1 X37.119 Y73.655 E182.20302
G1 X111.345 Y147.881 E185.61861
G1 X112.274 Y147.881 E185.64885
G1 X37.119 Y72.726 E189.10720
G1 X37.119 Y71.797 E189.13744
G1 X113.203 Y147.881 E192.63856
G1 X114.133 Y147.881 E192.66879
G1 X37.119 Y70.867 E196.21268
G1 X37.119 Y69.938 E196.24292
G1 X115.062 Y147.881 E199.82956
G1 X115.991 Y147.881 E199.85980
G1 X37.119 Y69.009 E203.48921
G1 X37.119 Y68.079 E203.51945
G1 X116.921 Y147.881 E207.19163
G1 X117.850 Y147.881 E207.22187
G1 X37.119 Y67.150 E210.93681
G1 X37.119 Y66.221 E210.96705
G1 X118.779 Y147.881 E214.72475
G1 X119.709 Y147.881 E214.75499
G1 X37.119 Y65.291 E218.55546
G1 X37.119 Y64.362 E218.58570
G1 X120.638 Y147.881 E222.42894
G1 X121.567 Y147.881 E222.45918
G1 X37.119 Y63.433 E226.34518
G1 X37.119 Y62.503 E226.37542
G1 X122.497 Y147.881 E230.30418
G1 X123.426 Y147.881 E230.33442
G1 X37.119 Y61.574 E234.30595
G1 X37.119 Y60.645 E234.33619
G1 X124.355 Y147.881 E238.35048
G1 X125.285 Y147.881 E238.38072
G1 X37.119 Y59.715 E242.43778
G1 X37.119 Y58.786 E242.46802
G1 X126.214 Y147.881 E246.56784
G1 X127.144 Y147.881 E246.59808
G1 X37.119 Y57.856 E250.74067
G1 X37.119 Y56.927 E250.77091
G1 X128.073 Y147.881 E254.95626
G1 X129.002 Y147.881 E254.98650
G1 X37.119 Y55.998 E259.21462
G1 X37.119 Y55.068 E259.24486
G1 X129.932 Y147.881 E263.51574
G1 X130.861 Y147.881 E263.54598
G1 X37.119 Y54.139 E267.85963
G1 X37.119 Y53.210 E267.88987
G1 X131.790 Y147.881 E272.24628
G1 X132.720 Y147.881 E272.27652
G1 X37.119 Y52.280 E276.67570
G1 X37.887 Y52.119 E276.70123
G1 X133.649 Y147.881 E281.10784
G1 X134.578 Y147.881 E281.13807
G1 X38.816 Y52.119 E285.54468
G1 X39.745 Y52.119 E285.57492
G1 X135.508 Y147.881 E289.98153
G1 X136.437 Y147.881 E290.01177
G1 X40.675 Y52.119 E294.41838
G1 X41.604 Y52.119 E294.44862
G1 X137.366 Y147.881 E298.85522
G1 X138.296 Y147.881 E298.88546
G1 X42.534 Y52.119 E303.29207
G1 X43.463 Y52.119 E303.32231
G1 X139.225 Y147.881 E307.72892
G1 X140.154 Y147.881 E307.75916
G1 X44.392 Y52.119 E312.16577
G1 X45.322 Y52.119 E312.19601
G1 X141.084 Y147.881 E316.60261
G1 X142.013 Y147.881 E316.63285
G1 X46.251 Y52.119 E321.03946
G1 X47.180 Y52.119 E321.06970
G1 X142.942 Y147.881 E325.47631
G1 X143.872 Y147.881 E325.50655
G1 X48.110 Y52.119 E329.91316
G1 X49.039 Y52.119 E329.94339
G1 X144.801 Y147.881 E334.35000
G1 X145.730 Y147.881 E334.38024
G1 X49.968 Y52.119 E338.78685
G1 X50.898 Y52.119 E338.81709
G1 X146.660 Y147.881 E343.22370
G1 X147.589 Y147.881 E343.25394
G1 X51.827 Y52.119 E347.66054
G1 X52.756 Y52.119 E347.69078
G1 X148.518 Y147.881 E352.09739
G1 X149.448 Y147.881 E352.12763
G1 X53.686 Y52.119 E356.53424
G1 X54.615 Y52.119 E356.56448
G1 X150.377 Y147.881 E360.97109
G1 X151.306 Y147.881 E361.00133
G1 X55.544 Y52.119 E365.40793
G1 X56.474 Y52.119 E365.43817
G1 X152.236 Y147.881 E369.84478
G1 X153.165 Y147.881 E369.87502
G1 X57.403 Y52.119 E374.28163
G1 X58.332 Y52.119 E374.31187
G1 X154.094 Y147.881 E378.71848
G1 X155.024 Y147.881 E378.74871
G1 X59.262 Y52.119 E383.15532
G1 X60.191 Y52.119 E383.18556
G1 X155.953 Y147.881 E387.59217
G1 X156.882 Y147.881 E387.62241
G1 X61.120 Y52.119 E392.02902
G1 X62.050 Y52.119 E392.05926
G1 X157.812 Y147.881 E396.46586
G1 X158.741 Y147.881 E396.49610
G1 X62.979 Y52.119 E400.90271
G1 X63.908 Y52.119 E400.93295
G1 X159.670 Y147.881 E405.33956
G1 X160.600 Y147.881 E405.36980
G1 X64.838 Y52.119 E409.77641
G1 X65.767 Y52.119 E409.80665
G1 X161.529 Y147.881 E414.21325
G1 X162.458 Y147.881 E414.24349
G1 X66.696 Y52.119 E418.65010
G1 X67.626 Y52.119 E418.68034
G1 X162.881 Y147.374 E423.06363
G1 X162.881 Y146.445 E423.09387
G1 X68.555 Y52.119 E427.43439
G1 X69.484 Y52.119 E427.46463
G1 X162.881 Y145.516 E431.76239
G1 X162.881 Y144.586 E431.79263
G1 X70.414 Y52.119 E436.04762
G1 X71.343 Y52.119 E436.07786
G1 X162.881 Y143.657 E440.29009
G1 X162.881 Y142.728 E440.32033
G1 X72.272 Y52.119 E444.48979
G1 X73.202 Y52.119 E444.52003
G1 X162.881 Y141.798 E448.64673
G1 X162.881 Y140.869 E448.67697
G1 X74.131 Y52.119 E452.76091
G1 X75.060 Y52.119 E452.79115
G1 X162.881 Y139.940 E456.83232
G1 X162.881 Y139.010 E456.86256
G1 X75.990 Y52.119 E460.86096
G1 X76.919 Y52.119 E460.89120
G1 X162.881 Y138.081 E464.84684
G1 X162.881 Y137.152 E464.87708
G1 X77.848 Y52.119 E468.78996
G1 X78.778 Y52.119 E468.82020
G1 X162.881 Y136.222 E472.69031
G1 X162.881 Y135.293 E472.72055
G1 X79.707 Y52.119 E476.54789
G1 X80.637 Y52.119 E476.57813
G1 X162.881 Y134.363 E480.36271
G1 X162.881 Y133.434 E480.39295
G1 X81.566 Y52.119 E484.13477
G1 X82.495 Y52.119 E484.16501
G1 X162.881 Y132.505 E487.86406
G1 X162.881 Y131.575 E487.89430
G1 X83.425 Y52.119 E491.55059
G1 X84.354 Y52.119 E491.58083
G1 X162.881 Y130.646 E495.19435
G1 X162.881 Y129.717 E495.22459
G1 X85.283 Y52.119 E498.79535
G1 X86.213 Y52.119 E498.82558
G1 X162.881 Y128.787 E502.35358
G1 X162.881 Y127.858 E502.38382
G1 X87.142 Y52.119 E505.86905
G1 X88.071 Y52.119 E505.89928
G1 X162.881 Y126.929 E509.34175
G1 X162.881 Y125.999 E509.37199
G1 X89.001 Y52.119 E512.77169
G1 X89.930 Y52.119 E512.80193
G1 X162.881 Y125.070 E516.15886
G1 X162.881 Y124.141 E516.18910
G1 X90.859 Y52.119 E519.50327
G1 X91.789 Y52.119 E519.53351
G1 X162.881 Y123.211 E522.80491
G1 X162.881 Y122.282 E522.83515
G1 X92.718 Y52.119 E526.06379
G1 X93.647 Y52.119 E526.09403
G1 X162.881 Y121.353 E529.27990
G1 X162.881 Y120.423 E529.31014
G1 X94.577 Y52.119 E532.45325
G1 X95.506 Y52.119 E532.48349
G1 X162.881 Y119.494 E535.58384
G1 X162.881 Y118.565 E535.61408
G1 X96.435 Y52.119 E538.67166
G1 X97.365 Y52.119 E538.70190
G1 X162.881 Y117.635 E541.71671
G1 X162.881 Y116.706 E541.74695
G1 X98.294 Y52.119 E544.71900
G1 X99.223 Y52.119 E544.74924
G1 X162.881 Y115.777 E547.67853
G1 X162.881 Y114.847 E547.70877
G1 X100.153 Y52.119 E550.59529
G1 X101.082 Y52.119 E550.62553
G1 X162.881 Y113.918 E553.46929
G1 X162.881 Y112.989 E553.49953
G1 X102.011 Y52.119 E556.30052
G1 X102.941 Y52.119 E556.33076
G1 X162.881 Y112.059 E559.08898
G1 X162.881 Y111.130 E559.11922
G1 X103.870 Y52.119 E561.83469
G1 X104.799 Y52.119 E561.86492
G1 X162.881 Y110.201 E564.53762
G1 X162.881 Y109.271 E564.56786
G1 X105.729 Y52.119 E567.19779
G1 X106.658 Y52.119 E567.22803
G1 X162.881 Y108.342 E569.81520
G1 X162.881 Y107.413 E569.84544
G1 X107.587 Y52.119 E572.38984
G1 X108.517 Y52.119 E572.42008
G1 X162.881 Y106.483 E574.92172
G1 X162.881 Y105.554 E574.95196
G1 X109.446 Y52.119 E577.41084
G1 X110.375 Y52.119 E577.44107
G1 X162.881 Y104.625 E579.85718
G1 X162.881 Y103.695 E579.88742
G1 X111.305 Y52.119 E582.26077
G1 X112.234 Y52.119 E582.29101
G1 X162.881 Y102.766 E584.62159
G1 X162.881 Y101.837 E584.65183
G1 X113.163 Y52.119 E586.93964
G1 X114.093 Y52.119 E586.96988
G1 X162.881 Y100.907 E589.21493
G1 X162.881 Y99.978 E589.24517
G1 X115.022 Y52.119 E591.44745
G1 X115.951 Y52.119 E591.47769
G1 X162.881 Y99.049 E593.63721
G1 X162.881 Y98.119 E593.66745
G1 X116.881 Y52.119 E595.78421
G1 X117.810 Y52.119 E595.81445
G1 X162.881 Y97.190 E597.88844
G1 X162.881 Y96.260 E597.91868
G1 X118.739 Y52.119 E599.94991
G1 X119.669 Y52.119 E599.98014
G1 X162.881 Y95.331 E601.96861
G1 X162.881 Y94.402 E601.99885
G1 X120.598 Y52.119 E603.94454
G1 X121.528 Y52.119 E603.97478
G1 X162.881 Y93.472 E605.87771
G1 X162.881 Y92.543 E605.90795
G1 X122.457 Y52.119 E607.76812
G1 X123.386 Y52.119 E607.79836
G1 X162.881 Y91.614 E609.61576
G1 X162.881 Y90.684 E609.64600
G1 X124.316 Y52.119 E611.42064
G1 X125.245 Y52.119 E611.45088
G1 X162.881 Y89.755 E613.18275
G1 X162.881 Y88.826 E613.21299
G1 X126.174 Y52.119 E614.90210
G1 X127.104 Y52.119 E614.93234
G1 X162.881 Y87.896 E616.57868
G1 X162.881 Y86.967 E616.60892
G1 X128.033 Y52.119 E618.21250
G1 X128.962 Y52.119 E618.24274
G1 X162.881 Y86.038 E619.80355
G1 X162.881 Y85.108 E619.83379
G1 X129.892 Y52.119 E621.35184
G1 X130.821 Y52.119 E621.38208
G1 X162.881 Y84.179 E622.85736
G1 X162.881 Y83.250 E622.88760
G1 X131.750 Y52.119 E624.32012
G1 X132.680 Y52.119 E624.35036
G1 X162.881 Y82.320 E625.74012
G1 X162.881 Y81.391 E625.77036
G1 X133.609 Y52.119 E627.11735
G1 X134.538 Y52.119 E627.14759
G1 X162.881 Y80.462 E628.45181
G1 X162.881 Y79.532 E628.48205
G1 X135.468 Y52.119 E629.74351
G1 X136.397 Y52.119 E629.77375
G1 X162.881 Y78.603 E630.99245
G1 X162.881 Y77.674 E631.02268
G1 X137.326 Y52.119 E632.19862
G1 X138.256 Y52.119 E632.22886
G1 X162.881 Y76.744 E633.36202
G1 X162.881 Y75.815 E633.39226
G1 X139.185 Y52.119 E634.48266
G1 X140.114 Y52.119 E634.51290
G1 X162.881 Y74.886 E635.56054
G1 X162.881 Y73.956 E635.59078
G1 X141.044 Y52.119 E636.59565
G1 X141.973 Y52.119 E636.62589
G1 X162.881 Y73.027 E637.58800
G1 X162.881 Y72.098 E637.61824
G1 X142.902 Y52.119 E638.53758
G1 X143.832 Y52.119 E638.56782
G1 X162.881 Y71.168 E639.44439
G1 X162.881 Y70.239 E639.47463
G1 X144.761 Y52.119 E640.30845
G1 X145.690 Y52.119 E640.33869
G1 X162.881 Y69.310 E641.12973
